!!!SOCIAL_FUNCTION:	songs connected with legends
!!!PDT:	1929
!!!OTL: No_41_From_One_Dance_Circle_to_Another.krn
!!!REG: Southwest
!!!LANG: Non-Tone
!!!LING_GROUP: Uto-Aztecan
**kern
*staff1
=1-
*clefF4
*k[f#c#g#]
*M6/8
4.c#\
8d\L
8c#\J
8r
=2
8c#\L
8c#\
8c#\J
8c#\L
8A\
8G#\J
=3!|:
*M7/8
8A\L
8G#\
8A\
8G#\
8F#\
8C#\
8C#\J
=4||
*M5/8
16.F#\LL
32C#\K
16.C#\
32F#\JK
8F#\J
4F#\
=5||
*M4/8
8F#\
8F#\
8F#\
8G#\
=6||
*M5/8
16.F#\LL
32C#\K
16.C#\
32F#\JK
8F#\J
4F#\
=7||
*M3/8
8F#\
4F#\
==:|!
*-
